src/icon/banking/convert/icon_convert_m_white.svg

<svg width="24px" height="24px" viewBox="0 0 24 24" version="1.1" xmlns="http://www.w3.org/2000/svg"><g stroke="none" stroke-width="1" fill="none" fill-rule="evenodd"><rect x="0" y="0" width="24" height="24"/><polygon fill="#FFFFFF" fill-rule="nonzero" points="17.5 1.11022302e-16 18.5 1.11022302e-16 18.5 15 17.5 15"/><path d="M22.260651,4.25947822 L21.2629147,4.32672532 C21.1565387,2.74843931 20.1291334,1.98945225 17.9666137,1.98945225 C15.9001007,1.98945225 15.0114654,2.72237443 15.0114654,4.29310177 C15.0114654,5.64098327 15.9212155,6.35199605 18.3155047,7.2692926 C18.4421083,7.3177968 18.8738062,7.48147851 18.9093304,7.49500996 C21.330747,8.41734461 22.2617828,9.07398145 22.2617828,10.5053778 C22.2617828,13.1129718 20.4902484,14.1878786 17.6198224,14.0367585 C15.1776402,13.9081842 13.7508535,12.7244232 13.4950241,10.56418 L14.4880846,10.4465756 C14.6834568,12.0963134 15.6930403,12.9339337 17.6723969,13.0381415 C20.0414417,13.1628653 21.2617828,12.4224037 21.2617828,10.5053778 C21.2617828,9.6851529 20.5712462,9.19813426 18.5533721,8.42951179 C18.5192903,8.41652978 18.0862835,8.25235177 17.9577436,8.20310574 C15.1962015,7.14510781 14.0114654,6.21918044 14.0114654,4.29310177 C14.0114654,2.12294983 15.3857804,0.989452247 17.9666137,0.989452247 C20.6123661,0.989452247 22.1150736,2.09956487 22.260651,4.25947822 Z" fill="#FFFFFF" fill-rule="nonzero"/><polygon fill="#FFFFFF" fill-rule="nonzero" opacity="0.300000012" points="22.9359816 16.2957972 23.7042028 16.9359816 18 23.781025 12.2957972 16.9359816 13.0640184 16.2957972 18 22.218975"/><path d="M10.0017226,10.006062 L10.500097,10.0463478 L10.4195254,11.0430966 L9.92115103,11.0028108 C5.13147668,10.6156406 2.85300976,12.5608425 2.85300976,17 C2.85300976,21.4343721 5.12406336,23.324502 9.91054211,22.8348526 L10.4079462,22.7839689 L10.5097136,23.7787771 L10.0123095,23.8296608 C4.65423351,24.3777837 1.85300976,22.0464091 1.85300976,17 C1.85300976,11.9583763 4.64682754,9.57320249 10.0017226,10.006062 Z" fill="#FFFFFF" fill-rule="nonzero"/><polygon fill="#FFFFFF" fill-rule="nonzero" points="1.11022302e-16 16 1.11022302e-16 15 9 15 9 16"/><polygon fill="#FFFFFF" fill-rule="nonzero" points="1.11022302e-16 19 1.11022302e-16 18 9 18 9 19"/><polygon fill="#FFFFFF" fill-rule="nonzero" opacity="0.329999983" points="1.06401844 7.70260736 0.29579716 7.06242296 6 0.217379553 11.7042028 7.06242296 10.9359816 7.70260736 6 1.77942949"/></g></svg>

<svg width="24" height="24" viewBox="0 0 24 24" xmlns="http://www.w3.org/2000/svg"><g fill="none" fill-rule="evenodd"><path d="M0 0h24v24H0z"/><path fill="#FFF" fill-rule="nonzero" d="M17.5 0h1v15h-1z"/><path d="M22.26 4.26l-.997.067c-.106-1.579-1.134-2.338-3.296-2.338-2.067 0-2.956.733-2.956 2.304 0 1.348.91 2.059 3.305 2.976l.593.226c2.422.922 3.353 1.579 3.353 3.01 0 2.608-1.772 3.683-4.642 3.532-2.442-.129-3.87-1.313-4.125-3.473l.993-.117c.195 1.65 1.205 2.487 3.184 2.591 2.37.125 3.59-.616 3.59-2.533 0-.82-.69-1.307-2.709-2.075l-.595-.227c-2.762-1.058-3.947-1.984-3.947-3.91 0-2.17 1.375-3.304 3.956-3.304 2.645 0 4.148 1.11 4.294 3.27z" fill="#FFF" fill-rule="nonzero"/><path fill="#FFF" fill-rule="nonzero" opacity=".3" d="M22.936 16.296l.768.64L18 23.781l-5.704-6.845.768-.64L18 22.219z"/><path d="M10.002 10.006l.498.04-.08.997-.499-.04C5.131 10.616 2.853 12.56 2.853 17c0 4.434 2.271 6.325 7.058 5.835l.497-.051.102.995-.498.05c-5.358.549-8.159-1.783-8.159-6.829 0-5.042 2.794-7.427 8.149-6.994z" fill="#FFF" fill-rule="nonzero"/><path fill="#FFF" fill-rule="nonzero" d="M0 16v-1h9v1zM0 19v-1h9v1z"/><path fill="#FFF" fill-rule="nonzero" opacity=".33" d="M1.064 7.703l-.768-.64L6 .216l5.704 6.845-.768.64L6 1.78z"/></g></svg>
